assets/iconset/arrow_carrot-2_alt.svg

<?xml version="1.0" encoding="UTF-8" standalone="no"?>
<!-- Generator: IcoMoon.io -->

<svg
   xmlns:dc="http://purl.org/dc/elements/1.1/"
   xmlns:cc="http://creativecommons.org/ns#"
   xmlns:rdf="http://www.w3.org/1999/02/22-rdf-syntax-ns#"
   xmlns:svg="http://www.w3.org/2000/svg"
   xmlns="http://www.w3.org/2000/svg"
   xmlns:sodipodi="http://sodipodi.sourceforge.net/DTD/sodipodi-0.dtd"
   xmlns:inkscape="http://www.inkscape.org/namespaces/inkscape"
   width="32"
   height="32"
   viewBox="0 0 32 32"
   fill="#000000"
   version="1.1"
   id="svg6"
   sodipodi:docname="arrow_carrot-2_alt.svg"
   inkscape:version="0.92.1 r15371">
  <metadata
     id="metadata12">
    <rdf:RDF>
      <cc:Work
         rdf:about="">
        <dc:format>image/svg+xml</dc:format>
        <dc:type
           rdf:resource="http://purl.org/dc/dcmitype/StillImage" />
      </cc:Work>
    </rdf:RDF>
  </metadata>
  <defs
     id="defs10" />
  <sodipodi:namedview
     pagecolor="#ffffff"
     bordercolor="#666666"
     borderopacity="1"
     objecttolerance="10"
     gridtolerance="10"
     guidetolerance="10"
     inkscape:pageopacity="0"
     inkscape:pageshadow="2"
     inkscape:window-width="1920"
     inkscape:window-height="1016"
     id="namedview8"
     showgrid="false"
     inkscape:zoom="7.375"
     inkscape:cx="16.271186"
     inkscape:cy="16"
     inkscape:window-x="0"
     inkscape:window-y="27"
     inkscape:window-maximized="1"
     inkscape:current-layer="svg6" />
  <g
     id="g4"
     transform="matrix(0,1.0717396,-1.0717396,0,34.295667,-2.2967382)">
    <path
       d="M 17.072,2.142 C 8.828,2.142 2.144,8.826 2.144,17.07 2.142,25.316 8.826,32 17.072,32 25.316,32 32,25.316 32,17.072 32,8.826 25.316,2.142 17.072,2.142 Z m -0.436,22.236 c -0.392,0.392 -1.03,0.392 -1.422,0 l -5.92,-6.69 C 9.094,17.488 8.998,17.224 9.002,16.962 9,16.7 9.094,16.438 9.294,16.238 l 5.918,-6.69 c 0.392,-0.392 1.03,-0.392 1.422,0 0.392,0.392 0.392,1.03 0,1.422 l -5.3,5.992 5.3,5.992 c 0.394,0.394 0.394,1.032 0.002,1.424 z m 7.172,-1.422 c 0.392,0.392 0.392,1.03 0,1.422 -0.392,0.392 -1.03,0.392 -1.422,0 l -5.92,-6.69 c -0.2,-0.2 -0.296,-0.464 -0.292,-0.726 -0.002,-0.262 0.092,-0.524 0.292,-0.724 l 5.918,-6.69 c 0.392,-0.392 1.03,-0.392 1.422,0 0.392,0.392 0.392,1.03 0,1.422 l -5.3,5.992 z"
       id="path2"
       inkscape:connector-curvature="0" />
  </g>
</svg>

<?xml version="1.0" encoding="utf-8"?> <!-- Generator: IcoMoon.io --> <!DOCTYPE svg PUBLIC "-//W3C//DTD SVG 1.1//EN" "http://www.w3.org/Graphics/SVG/1.1/DTD/svg11.dtd"> <svg width="32" height="32" viewBox="0 0 32 32" xmlns="http://www.w3.org/2000/svg" xmlns:xlink="http://www.w3.org/1999/xlink" fill="#000000"><g><path d="M 17.072,2.142c-8.244,0-14.928,6.684-14.928,14.928C 2.142,25.316, 8.826,32, 17.072,32 C 25.316,32, 32,25.316, 32,17.072C 32,8.826, 25.316,2.142, 17.072,2.142z M 16.636,24.378c-0.392,0.392-1.030,0.392-1.422,0L 9.294,17.688 c-0.2-0.2-0.296-0.464-0.292-0.726C 9,16.7, 9.094,16.438, 9.294,16.238l 5.918-6.69c 0.392-0.392, 1.030-0.392, 1.422,0 s 0.392,1.030,0,1.422l-5.3,5.992l 5.3,5.992C 17.028,23.348, 17.028,23.986, 16.636,24.378z M 23.808,22.956 c 0.392,0.392, 0.392,1.030,0,1.422s-1.030,0.392-1.422,0L 16.466,17.688c-0.2-0.2-0.296-0.464-0.292-0.726 C 16.172,16.7, 16.266,16.438, 16.466,16.238l 5.918-6.69c 0.392-0.392, 1.030-0.392, 1.422,0s 0.392,1.030,0,1.422l-5.3,5.992L 23.808,22.956z "></path></g></svg>
